packages/astro-components-stencil/src/icons/done-all.svg

<svg width="24" height="24" viewBox="0 0 24 24" fill="none" xmlns="http://www.w3.org/2000/svg">
<path fill-rule="evenodd" clip-rule="evenodd" d="M21.54 6.28998L11.66 16.17L8.18001 12.7C7.79001 12.31 7.16001 12.31 6.77001 12.7C6.38001 13.09 6.38001 13.72 6.77001 14.11L10.95 18.29C11.34 18.68 11.97 18.68 12.36 18.29L22.95 7.70998C23.34 7.31998 23.34 6.68998 22.95 6.29998H22.94C22.56 5.89998 21.93 5.89998 21.54 6.28998ZM17.3 6.29998C16.91 5.90998 16.28 5.90998 15.89 6.29998L10.25 11.94L11.66 13.35L17.3 7.69998C17.68 7.31998 17.68 6.67998 17.3 6.29998ZM5.30001 18.3L1.12001 14.12C0.730015 13.73 0.730015 13.09 1.12001 12.7C1.51001 12.31 2.14001 12.31 2.53001 12.7L7.41001 17.6L6.71001 18.3C6.32001 18.69 5.69001 18.69 5.30001 18.3Z" fill="black"/>
</svg>

<svg xmlns="http://www.w3.org/2000/svg" viewBox="0 0 24 24"><g xmlns="http://www.w3.org/2000/svg" id="done-all" fill-rule="nonzero">
            <path d="M17.3 6.3a.996.996 0 00-1.41 0l-5.64 5.64 1.41 1.41L17.3 7.7c.38-.38.38-1.02 0-1.4zm4.24-.01l-9.88 9.88-3.48-3.47a.996.996 0 10-1.41 1.41l4.18 4.18c.39.39 1.02.39 1.41 0L22.95 7.71a.996.996 0 000-1.41h-.01a.975.975 0 00-1.4-.01zM1.12 14.12L5.3 18.3c.39.39 1.02.39 1.41 0l.7-.7-4.88-4.9a.996.996 0 00-1.41 0c-.39.39-.39 1.03 0 1.42z"/>
        </g></svg>
